X:969
T:The Three Little Drummers
N:"Collected by F.O'Neill"
B:O'Neill's 969
Z:Transcribed by Dan G. Petersen, dangp@post6.tele.dk
M:6/8
L:1/8
K:Am
(g/f/)|eAA eAA|BAB GBd|eAA eAA|de^f gfg|
eAA eAA|BAB GBd|de^f gdB|BAA A2:|
d|eaa eaa|egg egg|eaa eaa|de^f gdB|
eaa eaa|egg egg|de^f gdB|BAA A2:|
d|eaa a^ga|bab ged|eaa a^ga|bab g2d|
eaa a^ga|bab ged|de^f gdB|BAA A2:|


